!!!COM: Beethoven, Ludwig van
!!!CDT: 1770///-1827///
!!!OTL: Piano Sonata no. 12 in A-flat major
!!!OTP: funeral march
!!!OPS: 26
!!!OMV: 3
!!!ONB: Marcia funebre sulla morte d'un eroe
!!!OMD: Maestoso andante
**kern	**kern	**dynam
*staff2	*staff1	*staff1/2
*Ipiano	*Ipiano	*Ipiano
*>[A,B,B,C,C1,C,C2,D]	*>[A,B,B,C,C1,C,C2,D]	*>[A,B,B,C,C1,C,C2,D]
*>norep[A,B,C,C2,D]	*>norep[A,B,C,C2,D]	*>norep[A,B,C,C2,D]
*>A	*>A	*>A
*clefF4	*clefG2	*
*k[b-e-a-d-g-c-f-]	*k[b-e-a-d-g-c-f-]	*
*a-:	*a-:	*
*M4/4	*M4/4	*
*MM52	*MM52	*
4r	8.E-< 8.e-L	p
.	16E-< 16e-Jk	.
=1	=1	=1
*^	*	*
2AAA-	1AA-	4E-< 4A-< 4c-< 4e-	.
.	.	8.E-< 8.A-< 8.c-< 8.e-L	.
.	.	16E-< 16A-< 16c-< 16e-Jk	.
2AAA-	.	8.E-< 8.A-< 8.c-< 8.e-L	.
.	.	16E-< 16A-< 16e-Jk	.
.	.	8.E-< 8.Gn< 8.B-< 8.e-L	.
.	.	16E-< 16A-< 16c-< 16e-Jk	.
*v	*v	*	*
=2	=2	=2
8.EE-L	2.E-< 2.B-< 2.d-< 2.e-	.
16EE-k	.	.
8.GGn	.	.
16BB-Jk	.	.
4E-	.	.
8.D- 8.E-L	8.Gn< 8.B-<L 8.e-L	.
16D- 16E-Jk	16G< 16B-<Jk 16e-Jk	.
=3	=3	=3
*^	*	*
4A- 4c-	4C- 4E-	4e-	.
8.A- 8.c-L	8.AA- 8.E-L	8.e-L	.
16A- 16c-Jk	16AA- 16E-Jk	16e-Jk	.
4B- 4d-	4GGn 4E-	4e-	.
8.A- 8.c-L	8.AA- 8.E-L	8.e-L	.
16A- 16c-Jk	16AA- 16E-Jk	16e-Jk	.
=4	=4	=4	=4
4Gn 4B-	4EE-` 4E-`	4e-	.
4G` 4B-`	4EE- 4E-	4e-`	.
4G` 4B-`	4EE- 4E-	4e-`	.
8.E-L	4r	8.e-L	.
16E-Jk	.	16e-Jk	.
!!LO:LB:g=original
=5	=5	=5	=5
*	*^	*	*
4E- 4A- 4c-	2AAA-	1AA-	4e-	.
8.E- 8.A- 8.c-L	.	.	8.e-L	<
16E- 16A- 16c-Jk	.	.	16e-Jk	.
8.E- 8.A- 8.c-L	2AAA-	.	8.e-L	.
16E- 16A- 16c-Jk	.	.	16e-Jk	.
8.E- 8.G- 8.B-L	.	.	8.e-L	.
16E- 16Fn 16A-Jk	.	.	16e-Jk	.
*	*v	*v	*	*
=6	=6	=6	=6
2.E- 2.G- 2.B-	8.EE-L	2.e-	p
.	16EE-k	.	.
.	8.GG-	.	.
.	16BB-Jk	.	.
.	4E-	.	.
8.G- 8.c-L	8.C-L	8.e-L	.
16G- 16c-Jk	16C-Jk	16e-Jk	.
=7	=7	=7	=7
4A- 4c-	4AA-	4e-	.
8.A- 8.c-L	8.FF-L	8.d-L	.
16A- 16c-Jk	16FF-Jk	16d-Jk	.
4G- 4c-	4GG-	4d-	.
8.F- 8.G- 8.B-L	8.GGG- 8.GG-L	8.d-L	.
16F- 16G- 16B-Jk	16GGG- 16GG-Jk	16d-Jk	.
=8	=8	=8	=8
4E-` 4G-`	4CC-` 4C-`	4c-`	.
4E- 4G-	4CC-` 4C-`	4c-	.
4E-` 4G-`	4CC-` 4C-`	4c-`	.
8.F#L	4r	8.f#L	.
16F#Jk	.	16f#Jk	.
!!LO:LB:g=original
=9	=9	=9	=9
*	*^	*	*
4F# 4Bn	2BBBn	1BBn	4dn 4f#	<
8.F# 8.BL	.	.	8.d 8.f#L	.
16F# 16BJk	.	.	16d 16f#Jk	.
8.F# 8.BL	2BBB	.	8.d 8.f#L	.
16F# 16BJk	.	.	16d 16f#Jk	.
8.F# 8.A#L	.	.	8.c# 8.f#L	.
16F# 16BJk	.	.	16d 16f#Jk	.
*	*v	*v	*	*
=10	=10	=10	=10
2.F# 2.c-	8.FFF# 8.FF#L	2.en 2.f#	f
.	16FFF# 16FF#k	.	.
.	8.AAA# 8.AA#	.	.
.	16CC# 16C#Jk	.	.
.	4FF# 4F#	.	.
8.F# 8.A#L	8.EEn 8.EnL	8.c# 8.f#L	.
16F# 16A#Jk	16EE 16EJk	16c#Jk	.
=11	=11	=11	=11
4F# 4Bn	4DDn 4Dn	4dn 4f#	.
8.F# 8.BL	8.BBBn 8.BBnL	8.d 8.f#L	.
16F# 16BJk	16BBB 16BBJk	16d 16f#Jk	.
4F#	4AAA# 4AA#	4c# 4en 4f#	.
8.F# 8.BL	8.BBB 8.BBL	8.d 8.f#L	.
16F# 16BJk	16BBJk	16d 16f#Jk	.
=12	=12	=12	=12
4F#` 4A#`	4FFF# 4FF#	4c#` 4f#`	.
4F#` 4A#`	4FFF#` 4FF#`	4c#` 4f#`	.
4F#` 4A#`	4FFF#` 4FF#`	4c#` 4f#`	.
8.F#L	4r	8.f#L	p
16F#Jk	.	16f#Jk	.
!!LO:LB:g=original
=13	=13	=13	=13
*	*^	*	*
4F# 4Bn	2BBBn	1BBn	4dn 4f#	.
8.F# 8.BL	.	.	8.d 8.f#L	.
16F# 16BJk	.	.	16d 16f#Jk	.
8.F# 8.BL	2BBB	.	8.d 8.f#L	.
16F# 16BJk	.	.	16d 16f#Jk	.
8.En 8.BL	.	.	8.c# 8.enL	.
16F# 16BJk	.	.	16d 16f#Jk	.
*	*v	*v	*	*
=14	=14	=14	=14
2.Gn 2.Bn	8.EEnL	2.en 2.gn	.
.	16EEk	.	.
.	8.GGn	.	.
.	16BBnJk	.	.
.	4En	.	.
8.G 8.BL	8.GG 8.EL	8.e 8.gL	.
16G 16BJk	16GG' 16E'Jk	16e 16gJk	.
*v	*v	*	*
=15	=15	=15
4AAn 4Dn 4F#	4An 4dn 4f#	.
8.AA 8.D 8.F#L	8.A 8.d 8.f#L	.
16AA 16D 16F#Jk	16A 16d 16f#Jk	.
4AA 4C# 4En	4A 4c# 4en	.
8.AA 8.C# 8.EL	8.A 8.c# 8.e 8.anL	.
16AA 16C# 16EJk	16A 16c# 16e 16aJk	.
=16	=16	=16
4DDn` 4Dn`	4dn`	p
4DD` 4D`	4d`	.
4DD` 4D`	4d`	.
8.D 8.A-L	8.fn 8.cc-L	pp
16D 16A-Jk	16f 16cc-Jk	.
=17	=17	=17
*^	*	*
(2A-	4Dn	2fn (2cc-	.
.	4D	.	.
4B-	4D	4f 4b-	.
4c-)	4D	4f 4a-)	.
!!LO:LB:g=original
=18	=18	=18	=18
8.B-L	8.E-`L	8.e-` 8.gn`L	.
16A-Jk	16Dn`Jk	16fn` 16cc-`Jk	.
2A-	4D	2f 2cc-	.
.	4D	.	.
4r	8.D 8.B-L	8.f 8.b-L	.
.	16D 16c-Jk	16f 16a-Jk	.
*v	*v	*	*
=19	=19	=19
8.E-` 8.B-`L	8.e-` 8.gn`L	.
16Dn 16A-k	16fn` 16cc-`k	ff
8.D` 8.A-`	8.f` 8.cc-`	.
16D` 16A-`Jk	16f` 16cc-`Jk	.
8.D` 8.A-`L	8.f` 8.cc-`L	.
16D` 16A-`k	16f` 16cc-`k	.
8.D` 8.B-`	8.f` 8.b-`	.
16D` 16c-`Jk	16f` 16a-`Jk	.
=20	=20	=20
4E-` 4B-`	4e-` 4gn`	.
2F-	2f-	.
(16E-LL	(16e-LL	.
16D-	16d-	.
16C-	16c-	.
16BB-JJ)	16B-JJ)	.
=21	=21	=21
*^	*	*
*	*^	*	*
4A-	2AAA-	1AA-	4r	.
8.E- 8.A- 8.c-L	.	.	8.e-L	.
16E- 16A- 16c-Jk	.	.	16e-Jk	.
8.E- 8.A- 8.c-L	2AAA-	.	8.e-L	.
16E- 16A- 16c-Jk	.	.	16e-Jk	.
8.E- 8.Gn 8.B-L	.	.	8.e-L	.
16E- 16A- 16c-Jk	.	.	16e-Jk	.
*	*v	*v	*	*
!!LO:LB:g=original
=22	=22	=22	=22
2.E- 2.B- 2.d-	8.EE-L	2.e-	.
.	16EE-k	.	.
.	8.GGn	.	.
.	16BB-`Jk	.	.
.	4E-`	.	.
8.E- 8.Gn 8.B-L	8.D-L	8.e-L	.
16E- 16G 16B-Jk	16D-Jk	16e-Jk	.
=23	=23	=23	=23
4E- 4A- 4c-	4.C-	4e-	.
8.E- 8.A- 8.c-L	.	8.e-L	.
.	16BB-LL	.	.
16E- 16A- 16c-Jk	16AA-JJ	16e-Jk	.
4E- 4B- 4d-	4GGn	4e-	.
8.E- 8.A- 8.c-L	8.AA-L	8.e-L	.
16E- 16A- 16c-Jk	16AA-Jk	16e-Jk	.
=24	=24	=24	=24
4E-` 4Gn` 4B-`	4EE-	4e-`	.
4E-` 4G` 4B-`	4EE-	4e-`	.
4E-` 4G` 4B-`	4EE-`	4e-`	.
8.E-L	4r	8.e-L	p
16E-Jk	.	16e-Jk	.
=25	=25	=25	=25
*	*^	*	*
4E- 4A- 4cn	2AAA-	1AA-	4e-	.
8.E- 8.A- 8.cL	.	.	8.e-L	.
16E- 16A- 16cJk	.	.	16e-Jk	.
8.E- 8.A- 8.cL	2AAA-	.	8.e-L	.
16E- 16A- 16cJk	.	.	16e-Jk	.
8.D- 8.A- 8.B-L	.	.	8.d-L	.
16E- 16A- 16cJk	.	.	16e-Jk	.
*	*v	*v	*	*
!!LO:LB:g=original
=26	=26	=26	=26
2.F- 2.A- 2.d-	8.DD-`L	2.f-	<
.	16DD-`k	.	.
.	8.FF-`	.	.
.	16AA-Jk	.	.
.	4D-`	.	.
4F-` 4A-` 4d-`	4r	4f-`	.
*v	*v	*	*
=27	=27	=27
8.r	2.d- 2.f- 2.b-- 2.dd-	f
16BBB-- 16BB--LK	.	.
8.DD-` 8.D-`	.	.
16FF-` 16F-`Jk	.	.
4BB--` 4B--`	.	.
4r	4d-` 4f-` 4b--` 4dd-`	.
=28	=28	=28
8.r	2.b- 2.dd- 2.ee- 2.bb-	ff
16GGn` 16Gn`LK	.	.
8.BB-` 8.B-`	.	.
16E-` 16e-`Jk	.	.
4G` 4gn`	.	.
4GG` 4G`	4b-` 4dd-` 4ee-` 4bb-`	.
=29	=29	=29
4AA-` 4A-`	4cc-` 4ee-` 4ccc-`	ff
4r	4r	.
4DD-` 4D-`	4b-` 4dd-` 4ff-` 4bb-`	.
4EE-` 4E-`	4gn` 4b-` 4dd-` 4ggn`	.
=30	=30	=30
*^	*	*
4AAA-` 4AA-`	4r	4a-` 4cc-` 4aa-`	.
4C-` 4E-` 4A-`	4AAA- 4AA-	4r	.
4AA-`	4AAA-	4r	.
4r	4r	4r	.
*v	*v	*	*
!!LO:LB:g=original
=31	=31	=31
*>B	*>B	*>B
*k[b-e-a-d-]	*k[b-e-a-d-]	*
*^	*	*
32cLLL	32AAA-LLL	4r	p
32E-	32AA-	.	.
32c	32AAA-	.	.
32E-	32AA-	.	.
32c	32AAA-	.	.
32E-	32AA-	.	.
32c	32AAA-	.	.
32E-JJJ	32AA-JJJ	.	.
32cLLL	32AAA-LLL	4r	.
32E-	32AA-	.	.
32c	32AAA-	.	.
32E-	32AA-	.	.
32c	32AAA-	.	.
32E-	32AA-	.	.
32c	32AAA-	.	.
32E-JJJ	32AA-JJJ	.	.
8C 8A-	8AAA-	8r	f
16r	8r	16r	.
16A-` 16c`	.	16a-` 16cc`	ff
8c` 8e-`	4r	8cc` 8ee-`	.
8r	.	8r	.
=32	=32	=32	=32
32cLLL	32AAA-LLL	4r	p
32E-	32AA-	.	.
32c	32AAA-	.	.
32E-	32AA-	.	.
32c	32AAA-	.	.
32E-	32AA-	.	.
32c	32AAA-	.	.
32E-JJJ	32AA-JJJ	.	.
32cLLL	32AAA-LLL	4r	.
32E-	32AA-	.	.
32c	32AAA-	.	.
32E-	32AA-	.	.
32c	32AAA-	.	.
32E-	32AA-	.	.
32c	32AAA-	.	.
32E-JJJ	32AA-JJJ	.	.
8C 8A-	8AAA-	8r	f
*v	*v	*	*
*clefG2	*	*
*^	*	*
8r	16r	16r	.
.	16a-` 16cc`	16aa-` 16ccc`	ff
4r	8cc` 8ee-`	8ccc` 8eee-`	.
.	8r	8r	.
*v	*v	*	*
*clefF4	*	*
!!LO:LB:g=original
=33	=33	=33
8BB-`	8B-`	.
16r	16r	.
16GG` 16BB-`	16ee-` 16gg`	.
8D-`	8bb-`	.
8r	8r	.
*clefF4	*	*
8BB-`	8B-`	.
*clefG2	*	*
16r	16r	.
16dn` 16f`	16ddn` 16ff`	.
8b-`	8bb-`	.
*clefF4	*	*
16r	16r	.
16BB-` 16B-`	16b-'	.
=34	=34	=34
8E-` 8e-`	8ee-`	.
8r	16r	.
.	16B-`	.
8EE-` 8GG` 8BB-` 8E-`	8e-`	.
8r	16r	.
.	16BB-	.
8EE- 8GG	8E-	.
8r	8r	.
4r	4r	.
=35:|!|:	=35:|!|:	=35:|!|:
*>C	*>C	*>C
32EE-LLL	32d-LLL	p
32E-	32B-	.
32EE-	32d-	.
32E-	32B-	.
32EE-	32d-	.
32E-	32B-	.
32EE-	32d-	.
32E-JJJ	32B-JJJ	.
32EE-LLL	32d-LLL	.
32E-	32B-	.
32EE-	32d-	.
32E-	32B-	.
32EE-	32d-	.
32E-	32B-	.
32EE-	32d-	.
32E-JJJ	32B-JJJ	.
8EE-'	8G 8B-	f
16r	16r	.
16G` 16B-`	16g` 16b-`	ff
8B-` 8d-`	8b-` 8dd-`	.
8r	8r	.
!!LO:LB:g=original
=36	=36	=36
32EE-LLL	32d-LLL	<
32E-	32B-	.
32EE-	32d-	.
32E-	32B-	.
32EE-	32d-	.
32E-	32B-	.
32EE-	32d-	.
32E-JJJ	32B-JJJ	.
32EE-LLL	32d-LLL	.
32E-	32B-	.
32EE-	32d-	.
32E-	32B-	.
32EE-	32d-	.
32E-	32B-	.
32EE-	32d-	.
32E-JJJ	32B-JJJ	.
8EE-	8G 8B-	f
*clefG2	*	*
16r	16r	.
16g` 16b-`	16gg` 16bb-`	ff
8b-` 8dd-`	8bb-` 8ddd-`	.
8r	8r	.
*clefF4	*	*
=37	=37	=37
8AA-` 8A-`	8a-`	.
*clefG2	*	*
16r	16r	.
16a-` 16cc`	16aa-` 16ccc`	.
8ee-`	8eee-`	.
8r	8r	.
*clefF4	*	*
8EE-` 8E-`	8e-`	.
*clefG2	*	*
16r	16r	.
16g` 16b-`	16gg` 16bb-`	.
8ee-`	8eee-`	.
*clefF4	*	*
16r	16r	.
16E-` 16e-`	16ee-`	.
=38	=38	=38
*>C1	*>C1	*>C1
8A-` 8a-`	8aa-`	.
8r	16r	.
.	16e-`	.
8AA- 8C 8E- 8A-	8a-`	.
8r	16r	.
.	16E-	.
8CC 8EE- 8AA-	8A-	.
8r	8r	.
4r	4r	.
!!LO:LB:g=original
=39:|!	=39:|!	=39:|!
*>C2	*>C2	*>C2
8A-` 8a-`	8aa-`	.
8r	16r	.
.	16e-`	.
8AA- 8C 8E- 8A-	8a-`	.
8r	16r	.
.	16E-`	.
8AAA- 8CC 8EE- 8AA-	8A-`	.
8r	8r	.
8.E-L	8.e-L	p
16E-Jk	16e-Jk	.
=40	=40	=40
*>D	*>D	*>D
*k[b-e-a-d-g-c-f-]	*k[b-e-a-d-g-c-f-]	*
*^	*	*
*	*^	*	*
4E- 4A- 4c-	2AAA-	1AA-	4e-	.
8.E- 8.A- 8.c-L	.	.	8.e-L	.
16E- 16A- 16c-Jk	.	.	16e-Jk	.
8.E- 8.A- 8.c-L	2AAA-	.	8.e-L	.
16E- 16A- 16c-Jk	.	.	16e-Jk	.
8.E- 8.Gn 8.B-L	.	.	8.e-L	.
16E- 16A- 16c-Jk	.	.	16e-Jk	.
*	*v	*v	*	*
=41	=41	=41	=41
2.E- 2.B- 2.d-	8.EE-L	2.e-	.
.	16EE-k	.	.
.	8.GGn	.	.
.	16BB-Jk	.	.
.	4E-	.	.
8.Gn 8.B-L	8.D- 8.E-L	8.e-L	.
16G 16B-Jk	16D- 16E-Jk	16e-Jk	.
=42	=42	=42	=42
4A- 4c-	4C- 4E-	4e-	.
8.A- 8.c-L	8.AA- 8.E-L	8.e-L	.
16A- 16c-Jk	16AA- 16E-Jk	16e-Jk	.
4B- 4d-	4GGn 4E-	4e-	.
8.A- 8.c-L	8.AA- 8.E-L	8.e-L	.
16A- 16c-Jk	16AA- 16E-Jk	16e-Jk	.
!!LO:LB:g=original
=43	=43	=43	=43
4Gn` 4B-`	4EE-` 4E-`	4e-`	.
4G` 4B-`	4EE-` 4E-`	4e-`	.
4G` 4B-`	4EE-` 4E-`	4e-`	.
8.E-L	4r	8.e-L	.
16E-Jk	.	16e-Jk	.
=44	=44	=44	=44
*	*^	*	*
4E- 4A- 4c-	2AAA-	1AA-	4e-	.
8.E- 8.A- 8.c-L	.	.	8.e-L	<
16E- 16A- 16c-Jk	.	.	16e-Jk	.
8.E- 8.A- 8.c-L	2AAA-	.	8.e-L	.
16E- 16A- 16c-Jk	.	.	16e-Jk	.
8.E- 8.G- 8.B-L	.	.	8.e-L	.
16E- 16F- 16A-Jk	.	.	16e-Jk	.
*	*v	*v	*	*
=45	=45	=45	=45
2.E- 2.G- 2.B-	8.EE-L	2.e-	.
.	16EE-k	.	.
.	8.GG-	.	.
.	16BB-Jk	.	.
.	4E-	.	.
8.G- 8.c-L	8.C-L	8.e-L	p
16G- 16c-Jk	16C-Jk	16e-Jk	.
=46	=46	=46	=46
4A- 4c-	4AA-	4e-	.
8.A- 8.c-L	8.FF-L	8.d-L	.
16A- 16c-Jk	16FF-Jk	16d-Jk	.
4G- 4c-	4GG-	4d-	.
8.F- 8.G- 8.B-L	8.GGG- 8.GG-L	8.d-L	.
16F- 16B-Jk	16GGG- 16GG-Jk	16d-Jk	.
=47	=47	=47	=47
4E- 4G- 4c-	4CC-` 4C-`	2.r	.
4E- 4G- 4c-	4CC-` 4C-`	.	.
4E-` 4G-` 4c-`	4CC- 4C-	.	.
8.F#L	4r	8.f#L	.
16F#Jk	.	16f#Jk	.
!!LO:LB:g=original
=48	=48	=48	=48
*	*^	*	*
4F# 4Bn 4dn	2BBBn	1BBn	4f#	.
8.F# 8.B 8.dL	.	.	8.f#L	.
16F# 16B 16dJk	.	.	16f#Jk	.
8.F# 8.B 8.dL	2BBB	.	8.f#L	.
16F# 16B 16dJk	.	.	16f#Jk	.
8.F# 8.A# 8.c#L	.	.	8.f#L	.
16F# 16B 16dJk	.	.	16f#Jk	.
*	*v	*v	*	*
=49	=49	=49	=49
2.F# 2.c# 2.en	8.FFF# 8.FF#L	2.f#	f
.	16FFF# 16FF#k	.	.
.	8.AAA# 8.AA#	.	.
.	16CC# 16C#Jk	.	.
.	4FF# 4F#	.	.
8.F# 8.A- 8.c#L	8.EEn 8.EnL	8.f#L	.
16F# 16A- 16c#Jk	16EE 16EJk	16f#Jk	.
=50	=50	=50	=50
4F# 4Bn 4dn	4DDn 4Dn	4f#	.
8.F# 8.B 8.dL	8.BBBn 8.BBnL	8.f#L	.
16F# 16B 16dJk	16BBB 16BBJk	16f#Jk	.
4F# 4c# 4en	4AAA# 4AA#	4f#	.
8.F# 8.B 8.dL	8.BBB 8.BBL	8.f#L	.
16F# 16B 16dJk	16BBB 16BBJk	16f#Jk	.
=51	=51	=51	=51
4F# 4A# 4c#	4FFF# 4FF#	4f#	.
4F#` 4A#` 4c#`	4FFF#` 4FF#`	4f#`	.
4F#` 4A#` 4c#`	4FFF#` 4FF#`	4f#`	.
8.F#L	4r	8.f#L	p
16F#Jk	.	16f#Jk	.
!!LO:LB:g=original
=52	=52	=52	=52
*	*^	*	*
4F# 4Bn 4dn	2BBBn	1BBn	4f#	.
8.F# 8.B 8.dL	.	.	8.f#L	.
16F# 16B 16dJk	.	.	16f#Jk	.
8.F# 8.B 8.dL	2BBB	.	8.f#L	.
16F# 16B 16dJk	.	.	16f#Jk	.
8.En 8.B 8.c#L	.	.	8.enL	.
16F# 16B 16dJk	.	.	16f#Jk	.
*	*v	*v	*	*
=53	=53	=53	=53
2.Gn 2.Bn	8.EEnL	2.en 2.gn	.
.	16EEk	.	.
.	8.GGn	.	.
.	16BBnJk	.	.
.	4En	.	.
8.G 8.BL	8.GG 8.EL	8.e 8.gL	.
16G 16BJk	16GG 16EJk	16e 16gJk	.
=54	=54	=54	=54
4An	4AAn 4Dn 4F#	4dn 4f#	.
8.AL	8.AA 8.D 8.F#L	8.d 8.f#L	.
16AJk	16AA 16D 16F#Jk	16d 16f#Jk	.
4A	4AA 4C# 4En	4c# 4en	.
8.AL	8.AA 8.C# 8.EL	8.c# 8.e 8.anL	.
16AJk	16AA 16C# 16EJk	16c# 16e 16aJk	.
*v	*v	*	*
=55	=55	=55
4DDn` 4Dn`	4dn`	p
4DD` 4D`	4d`	.
4DD` 4D`	4d`	.
8.D 8.A-L	8.fn 8.cc-L	pp
16D 16A-Jk	16f 16cc-Jk	.
=56	=56	=56
*^	*	*
(2A-	4Dn	2fn (2cc-	.
.	4D	.	.
4B-	4D	4f 4b-	.
4c-)	4D	4f 4a-)	.
!!LO:LB:g=original
=57	=57	=57	=57
8.B-L	8.E-`L	8.e-` 8.gn`L	.
16A-`Jk	16Dn`Jk	16fn` 16cc-`Jk	.
2A-	4D	2f 2cc-	.
.	4D	.	.
8.B-L	8.DL	8.f 8.b-L	.
16c-Jk	16DJk	16f 16a-Jk	.
*v	*v	*	*
=58	=58	=58
8.E-` 8.B-`L	8.e-` 8.gn`L	.
16Dn` 16A-`k	16fn 16cc-k	ff
8.D` 8.A-`	8.f` 8.cc-`	.
16D` 16A-`Jk	16f` 16cc-`Jk	.
8.D` 8.A-`L	8.f` 8.cc-`L	.
16D` 16A-`k	16f` 16cc-`k	.
8.D` 8.B-`	8.f` 8.b-`	.
16D` 16c-`Jk	16f` 16a-`Jk	.
=59	=59	=59
4E-` 4B-`	4e-` 4gn`	.
2F-	2f-	.
(16E-LL	(16e-LL	.
16D-	16d-	.
16C-	16c-)	.
16BB-JJ)	16B-JJ	.
=60	=60	=60
*^	*	*
*	*^	*	*
4r	2AAA-	1AA-	4A-	p
8.E- 8.A- 8.c-L	.	.	8.e-L	.
16E- 16A- 16c-Jk	.	.	16e-Jk	.
8.E- 8.A- 8.c-L	2AAA-	.	8.e-L	.
16E- 16A- 16c-Jk	.	.	16e-Jk	.
8.E- 8.Gn 8.B-L	.	.	8.e-L	.
16E- 16A- 16c-Jk	.	.	16e-Jk	.
*	*v	*v	*	*
=61	=61	=61	=61
2.E- 2.B- 2.d-	8.EE-L	2.e-	.
.	16EE-k	.	.
.	8.GGn	.	.
.	16BB-Jk	.	.
.	4E-	.	.
8.E- 8.Gn 8.B-L	8.D-L	8.e-L	.
16E- 16G 16B-Jk	16D-Jk	16e-Jk	.
!!LO:LB:g=original
=62	=62	=62	=62
4E- 4A- 4c-	4.C-	4e-	.
8.E- 8.A- 8.c-L	.	8.e-L	.
.	16BB-LL	.	.
16E- 16A- 16c-Jk	16AA-JJ	16e-Jk	.
4E- 4B- 4d-	4GGn	4e-	.
8.E- 8.A- 8.c-L	8.AA-L	8.e-L	.
16E- 16A- 16c-Jk	16AA-Jk	16e-Jk	.
=63	=63	=63	=63
4Gn` 4B-`	4EE-` 4E-`	4e-`	.
4B-`	4EE- 4E- 4G	4e-`	.
4G` 4B-`	4EE- 4E-	4e-`	.
8.E-L	4r	8.e-L	.
16E-Jk	.	16e-Jk	.
=64	=64	=64	=64
*	*^	*	*
4E- 4A- 4cn	2AAA-	1AA-	4e-	.
8.E- 8.A- 8.cL	.	.	8.e-L	.
16E- 16A- 16cJk	.	.	16e-Jk	.
8.E- 8.A- 8.cL	2AAA-'	.	8.e-L	.
16E- 16A- 16cJk	.	.	16e-Jk	.
8.D- 8.A- 8.B-L	.	.	8.d-L	.
16E- 16A- 16cJk	.	.	16e-Jk	.
*	*v	*v	*	*
=65	=65	=65	=65
2.F- 2.A- 2.d-	8.DD-`L	2.f-	.
.	16DD-`k	.	.
.	8.FF-`	.	.
.	16AA-`Jk	.	.
.	4D-`	.	.
4F-` 4A-` 4d-`	4r	4f-`	.
*v	*v	*	*
=66	=66	=66
8.r	2.d- 2.f- 2.b-- 2.dd-	f
16BBB--` 16BB--`LK	.	.
8.DD-` 8.D-`	.	.
16FF-` 16F-`Jk	.	.
4BB-- 4B--	.	.
4r	4d- 4f- 4b-- 4dd-	.
!!LO:LB:g=original
=67	=67	=67
8.r	2.b- 2.dd- 2.ee- 2.bb-	ff
16GGn 16GnLK	.	.
8.BB-` 8.B-`	.	.
16E-` 16e-`Jk	.	.
4G` 4gn`	.	.
4GG` 4G`	4b-` 4dd-` 4ee-` 4bb-`	.
=68	=68	=68
4AA-` 4A-`	4cc-` 4ee-` 4ccc-`	ff
4r	4r	.
4DD-` 4D-`	4b-` 4dd-` 4ff-` 4bb-`	.
4EE-` 4E-`	4gn` 4b-` 4dd-` 4ggn`	.
=69	=69	=69
*^	*	*
4AAA-` 4AA-`	2.r	4a-` 4cc-` 4aa-`	.
8.AA-L	.	4r	p
16AA-Jk	.	.	.
4AA-	.	4r	.
8.CnL	4AA-	(8.g- 8.b--L	p
16D-Jk	.	16f-) 16a-Jk	<
=70	=70	=70	=70
(4..E-	4AA-	(4..e- 4..g-	.
.	4AA-	.	.
16F-	.	16d-) 16f-	.
4G-	4AA-	(4d-' 4e-'	.
4Gn)	4AA-	4d-') 4e-'	.
=71	=71	=71	=71
4A-	4AA-	4cn 4e-	p
4r	8.AA-L	4r	.
.	16AA-Jk	.	.
4r	4AA-	4r	.
8..B--L	4AA-	8.e- 8.g- (8.ccnL	.
.	.	16f- 16a- 16dd-Jk	.
32A-Jkk	.	.	.
!!LO:LB:g=original
=72	=72	=72	=72
4..G-	4AA-	4..g- 4..b-- 4..ee-	.
.	4AA-	.	.
16F-	.	16a- 16dd- 16ff-	.
4E-	4AA-	4b-- 4ccn 4gg-	.
4D-	4AA-	4b-- 4ff- 4gg-	.
=73	=73	=73	=73
2Cn	4AA-	2ccn 2ee- 2aa-)	p
.	8.AA-L	.	.
.	16AA-Jk	.	.
2D- 2F-	4AA-	4..b-- (4..bb--	>
.	8.AA-L	.	.
.	16AA-Jk	16gn 16ggn)	.
=74	=74	=74	=74
*	*^	*^	*
4Cn 4E-	4AA-	1AA-	2r	4a- 4aa-	.
2.r	8.AAA-L	.	.	4r	.
.	16AAA-Jk	.	.	.	.
.	4AAA-	.	(4..b--	2d- 2f-	.
.	8.AAA-L	.	.	.	.
.	16AAA-Jk	.	16gn	.	.
*	*v	*v	*	*	*
*	*	*v	*v	*
=75	=75	=75	=75
1AA-	4AAA-	4cn 4e- 4a-)	.
.	8.AAA-L	4r	.
.	16AAA-Jk	.	.
.	4AAA-	4c' (4e-'	.
.	8.AAA-L	4c' 4e-')	.
.	16AAA-Jk	.	.
*v	*v	*	*
=76	=76	=76
2.AAA-; 2.AA-;	2.A-; 2.cn; 2.e-;	pp
4r	4r	.
==	==	==
*-	*-	*-
!!!RDF**kern: > = above
!!!RDF**kern: < = below
!!!verovio: beamFrenchStyle
!!!LOR: Durand 1915, plates 9327/9328, Paul Dukas, ed.
!!!PED: Dukas, Paul
!!!URL-vhv: https://verovio.humdrum.org/?file=beethoven/sonatas/sonata12-3.krn
!!!URL-pdf: https://github.com/craigsapp/beethoven-piano-sonatas/blob/master/reference-edition/sonata12-3.pdf
!!!ENC: Craig Stuart Sapp
!!!END: 2008/11/05
